svg/black/mco.svg

<svg xmlns="http://www.w3.org/2000/svg" width="32" height="32" viewBox="0 0 32 32">
  <path fill-rule="evenodd" d="M16,32 C7.163444,32 0,24.836556 0,16 C0,7.163444 7.163444,0 16,0 C24.836556,0 32,7.163444 32,16 C32,24.836556 24.836556,32 16,32 Z M15.9802995,5.01849034 L15.9143552,5.01849034 L6.5,10.50132 L6.5,21.50033 L15.914379,26.9811983 L15.9912442,27 L25.5,21.50033 L25.5,10.50132 L15.9802995,5.01849034 Z M15.9488696,6.15561827 L16.9802995,6.72763022 L24.5,11.078076 L24.5,20.923494 L16.9802995,25.2475537 L15.9478744,25.8447213 L7.5,20.925451 L7.5,11.0761585 L15.9488696,6.15561827 Z M8.8093318,16.7669353 L12.2191532,22.7266345 L13.5812212,22.7266345 L15.1928283,21.2160843 L15.1935945,20.4600392 L13.5210253,18.848287 L13.5210253,16.3082262 L11.3103053,14.8954679 L8.8093318,16.7669353 Z M16.7121717,21.2179544 L18.3222465,22.7093642 L19.6660369,22.7093642 L23.058894,16.7669353 L20.5627362,14.8781976 L18.3757661,16.3082262 L18.3757661,18.848617 L16.7088882,20.4570691 L16.7121717,21.2179544 Z M14.3413306,16.3082262 L14.0920104,18.6973639 L15.9368491,18.6940639 L17.8039055,18.6899938 L17.568485,16.3082262 L18.3658065,14.1766035 L13.5275922,14.1766035 L14.3413306,16.3082262 Z M15.9368491,13.5933719 L20.5587961,13.5961219 L19.6580472,9.77079542 L12.1937615,9.77079542 L11.3389804,13.5911718 L15.9368491,13.5933719 Z"/>
</svg>

<svg xmlns="http://www.w3.org/2000/svg" width="32" height="32"><path fill-rule="evenodd" d="M16 32C7.163 32 0 24.837 0 16S7.163 0 16 0s16 7.163 16 16-7.163 16-16 16zm-.02-26.982h-.066L6.5 10.501v11l9.414 5.48.077.019 9.509-5.5V10.501l-9.52-5.483zm-.031 1.138l1.031.572 7.52 4.35v9.845l-7.52 4.325-1.032.597-8.448-4.92v-9.849l8.449-4.92zm-7.14 10.61l3.41 5.96h1.362l1.612-1.51v-.756l-1.672-1.612v-2.54l-2.21-1.413-2.502 1.872zm7.903 4.452l1.61 1.491h1.344l3.393-5.942-2.496-1.889-2.187 1.43v2.54l-1.667 1.61.003.76zm-2.37-4.91l-.25 2.39 1.845-.004 1.867-.004-.236-2.382.798-2.131h-4.838l.813 2.131zm1.595-2.715l4.622.003-.901-3.825h-7.464l-.855 3.82 4.598.002z"/></svg>
